X:6366
T:Gloucestershire March,The. BC.22
M:C|
L:1/8
Q:100
S:Benjamin Cooke MS.circa 1770, F.Kidson Coll.
R:March
O:England
A:x
Z:John Bagnall
K:D
A2 | d2 d>d d>dc>c | d>dA>A F2 z d | e2 e>e e2(e/f/g) |a>af>f d2 f>g |!
 a2 a>a a2 g>f | g2 g>g g2 f>e | f2 ed b>ag>f | {f}e6 :|!
|:f>g | a2 a>a a2 g>f | b>bg>g e2 f>g | a>af>f d2 c>d |e>ec>c A2 a2 |!
 b2 d'2 a2 f2 | d2 d>d d2 (f/g/a) | b<ga<f g<ed>c | d6 :|]
